static/images/mobile/copyright/wikipedia-wordmark-sk.svg

<?xml version="1.0" encoding="UTF-8"?>
<svg width="119px" height="19px" viewBox="0 0 119 19" version="1.1" xmlns="http://www.w3.org/2000/svg" xmlns:xlink="http://www.w3.org/1999/xlink">
    <title>Combined Shape</title>
    <g id="Page-1" stroke="none" stroke-width="1" fill="none" fill-rule="evenodd">
        <path d="M25.8662675,0.487 C26.0182675,0.648 26.0182675,1.216 25.8662675,1.378 C24.1972675,1.594 23.9072675,2.625 23.3812675,3.888 L17.3962675,17.655 C17.2192675,18.06 17.0672675,18.276 16.7902675,18.276 C16.5372675,18.276 16.3422675,18.057 16.2082675,17.655 L12.8072675,9.819 L9.07826753,17.655 C8.92726753,18.06 8.74926753,18.276 8.47126753,18.276 C8.21926753,18.276 8.04126753,18.06 7.89026753,17.655 L2.39026753,3.835 C1.61926753,1.918 1.56826753,1.514 0.127267529,1.379 C-0.0247324708,1.217 -0.0497324708,0.65 0.102267529,0.488 C1.29026753,0.514 1.72026753,0.542 2.73126753,0.542 C3.71726753,0.542 4.34926753,0.515 5.53826753,0.488 C5.69026753,0.649 5.69026753,1.217 5.53826753,1.379 C3.94526753,1.567 3.87726753,1.994 4.51226753,3.538 L9.14126753,14.794 L9.25726753,14.794 L12.0812675,8.661 L9.95026753,3.835 C9.10326753,1.918 8.90126753,1.541 7.81326753,1.379 C7.66226753,1.217 7.63626753,0.65 7.78826753,0.488 C8.59726753,0.514 9.02726753,0.542 10.0382675,0.542 C11.0242675,0.542 11.4292675,0.515 12.3392675,0.488 C12.4912675,0.649 12.4912675,1.217 12.3392675,1.379 C11.2772675,1.541 11.3782675,1.999 12.0712675,3.538 L13.3152675,6.265 L13.4262675,6.386 L14.7662675,3.7 C15.5472675,2.135 15.6512675,1.541 14.5642675,1.379 C14.4122675,1.215 14.4122675,0.648 14.5642675,0.487 C15.5002675,0.513 15.9802675,0.541 16.5612675,0.541 C17.1432675,0.541 17.7752675,0.514 18.4072675,0.487 C18.5582675,0.648 18.5582675,1.216 18.4072675,1.378 C17.0922675,1.594 16.5432675,2.622 15.9212675,3.888 L14.0732675,7.643 L17.3072675,14.793 L17.4232675,14.793 L22.2252675,3.699 C22.8242675,2.238 22.7812675,1.512 21.1382675,1.378 C20.9862675,1.216 20.9862675,0.649 21.1382675,0.487 C22.3262675,0.513 23.0592675,0.541 23.6412675,0.541 C24.2232675,0.541 24.8552675,0.514 25.8662675,0.487 Z M31.0112675,5.48 C31.1632675,5.642 31.1632675,6.209 31.0112675,6.371 C29.4692675,6.506 29.1912675,6.587 29.1912675,8.827 L29.1912675,14.658 L29.1902675,14.658 C29.1902675,16.898 29.4682675,17.007 31.0102675,17.114 C31.1622675,17.276 31.1622675,17.843 31.0102675,18.005 C29.9232675,17.979 29.2912675,17.951 28.2042675,17.951 C27.0912675,17.951 26.4342675,17.978 25.3722675,18.005 C25.2212675,17.843 25.2212675,17.276 25.3722675,17.114 C26.9142675,16.979 27.1922675,16.898 27.1922675,14.658 L27.1922675,8.827 C27.1922675,6.587 26.9142675,6.479 25.3722675,6.371 C25.2212675,6.209 25.2212675,5.642 25.3722675,5.48 C26.4592675,5.507 27.0912675,5.534 28.1792675,5.534 C29.2912675,5.534 29.9492675,5.508 31.0112675,5.48 Z M33.4292675,6.371 C33.2782675,6.209 33.2782675,5.642 33.4292675,5.48 C34.4912675,5.507 35.1482675,5.534 36.2612675,5.534 C37.1972675,5.534 37.6012675,5.508 38.6882675,5.48 C38.8392675,5.642 38.8392675,6.209 38.6882675,6.371 C37.4742675,6.506 37.2472675,6.587 37.2472675,8.827 L37.2472675,11.229 C38.0812675,11.229 38.8222675,10.803 39.9022675,9.501 C41.8492675,7.153 42.1022675,6.451 40.8382675,6.37 C40.6862675,6.208 40.6862675,5.641 40.8382675,5.479 C41.9252675,5.506 42.8862675,5.533 43.6192675,5.533 C44.2762675,5.533 44.7062675,5.507 45.3892675,5.479 C45.5402675,5.641 45.5402675,6.208 45.3892675,6.37 C44.3782675,6.424 43.4502675,6.561 42.6832675,7.504 L40.5092675,10.176 C40.0792675,10.662 39.9272675,10.959 39.9272675,11.175 C39.9272675,11.337 40.0282675,11.472 40.1552675,11.634 L43.8972675,16.331 C44.2282675,16.741 44.8332675,17.032 45.5152675,17.113 C45.6662675,17.275 45.6662675,17.815 45.5152675,17.977 C45.5152675,17.977 44.2762675,17.95 43.5682675,17.95 C42.9102675,17.95 42.2782675,17.977 42.0002675,18.004 L42.0002675,17.626 C42.0002675,17.275 41.9752675,16.979 41.6212675,16.547 L38.8152675,12.821 C38.4362675,12.281 37.8032675,12.146 37.2472675,12.146 L37.2472675,14.657 C37.2472675,16.897 37.4752675,16.978 38.6882675,17.113 C38.8392675,17.275 38.8392675,17.842 38.6882675,18.004 C37.6012675,17.978 37.1962675,17.95 36.2612675,17.95 C35.1482675,17.95 34.4912675,17.977 33.4292675,18.004 C33.2782675,17.842 33.2782675,17.275 33.4292675,17.113 C34.9712675,16.978 35.2502675,16.897 35.2502675,14.657 L35.2502675,8.826 C35.2492675,6.586 34.9712675,6.505 33.4292675,6.371 L33.4292675,6.371 Z M51.2682675,14.658 C51.2682675,16.898 51.5462675,17.007 53.0882675,17.114 C53.2402675,17.276 53.2402675,17.843 53.0882675,18.005 C52.0012675,17.979 51.3692675,17.951 50.2822675,17.951 C49.1692675,17.951 48.5122675,17.978 47.4502675,18.005 C47.2992675,17.843 47.2992675,17.276 47.4502675,17.114 C48.9922675,16.979 49.2712675,16.898 49.2712675,14.658 L49.2712675,8.827 C49.2712675,6.587 48.9932675,6.479 47.4502675,6.371 C47.2992675,6.209 47.2992675,5.642 47.4502675,5.48 C48.5372675,5.507 49.1692675,5.534 50.2572675,5.534 C51.3692675,5.534 52.0272675,5.508 53.0892675,5.48 C53.2412675,5.642 53.2412675,6.209 53.0892675,6.371 C51.5472675,6.506 51.2692675,6.587 51.2692675,8.827 L51.2692675,14.658 L51.2682675,14.658 Z M61.2202675,17.114 C61.3722675,17.276 61.3722675,17.843 61.2202675,18.005 C60.1332675,17.979 59.5012675,17.951 58.4142675,17.951 C57.3022675,17.951 56.6442675,17.978 55.5822675,18.005 C55.4302675,17.843 55.4302675,17.276 55.5822675,17.114 C57.1242675,16.979 57.4022675,16.898 57.4022675,14.658 L57.4022675,8.827 C57.4022675,6.587 57.1242675,6.479 55.5822675,6.371 C55.4302675,6.209 55.4302675,5.642 55.5822675,5.48 C56.6692675,5.507 57.3012675,5.534 58.3882675,5.534 C59.0712675,5.534 60.1332675,5.48 61.0682675,5.48 C64.6592675,5.48 65.4172675,7.37 65.4172675,8.773 C65.4172675,10.393 64.3812675,12.984 60.9932675,12.984 C60.3602675,12.984 59.8552675,12.877 59.4002675,12.66 L59.4002675,14.658 C59.4002675,16.898 59.6782675,17.006 61.2202675,17.114 L61.2202675,17.114 Z M59.4002675,11.796 C59.9052675,12.012 60.5382675,12.093 61.0432675,12.093 C62.5602675,12.093 63.2182675,11.043 63.2182675,9.097 C63.2182675,7.204 62.4092675,6.37 60.9172675,6.37 C59.7032675,6.37 59.4002675,6.721 59.4002675,7.585 L59.4002675,11.796 Z M71.1722675,11.877 L71.1722675,15.926 C71.1722675,16.439 71.5262675,17.114 71.9822675,17.114 L74.0802675,17.114 C75.6742675,17.114 76.4062675,15.764 76.8102675,14.172 C77.0892675,14.091 77.2902675,14.146 77.5192675,14.28 C77.3412675,15.414 77.0642675,16.898 76.7602675,18.005 C76.7602675,18.005 75.0912675,17.951 74.0792675,17.951 L70.1852675,17.951 C70.1852675,17.951 68.4152675,17.978 67.3542675,18.005 C67.2022675,17.843 67.2022675,17.276 67.3542675,17.114 C68.8962675,16.979 69.1742675,16.898 69.1742675,14.658 L69.1742675,8.827 C69.1742675,6.587 68.8962675,6.479 67.3542675,6.371 C67.2022675,6.209 67.2022675,5.642 67.3542675,5.48 C68.4412675,5.507 70.1612675,5.534 70.1612675,5.534 L75.3932675,5.534 C75.8992675,5.534 76.0772675,5.48 76.4302675,5.427 C76.4812675,5.427 76.5062675,5.453 76.5062675,5.508 C76.5572675,5.696 76.8602675,7.802 76.9612675,8.72 C76.7592675,8.827 76.5312675,8.882 76.2782675,8.855 C75.8232675,7.317 75.4942675,6.425 73.9262675,6.425 L71.9802675,6.425 C71.5002675,6.425 71.1702675,6.722 71.1702675,7.181 L71.1702675,11.014 L72.6102675,11.014 C74.3812675,10.988 74.3052675,10.717 74.3552675,9.502 C74.4812675,9.367 74.9362675,9.367 75.0632675,9.502 C75.0382675,10.177 75.0122675,10.663 75.0122675,11.419 C75.0122675,12.175 75.0372675,12.607 75.0632675,13.39 C74.9362675,13.525 74.4812675,13.525 74.3552675,13.39 C74.3052675,12.391 74.4062675,11.878 72.6102675,11.878 L71.1722675,11.878 L71.1722675,11.877 Z M73.3222675,0 C73.4842675,0 74.1312675,0.027 74.7132675,0.621 L74.7892675,0.918 L71.8812675,3.86 C71.5022675,4.264 71.2992675,4.373 71.1222675,4.373 C70.9452675,4.373 70.7682675,4.211 70.7682675,4.021 C70.7682675,3.719 70.8522675,3.611 71.0572675,3.265 L72.9682675,0.053 C73.0432675,0.028 73.1952675,0 73.3222675,0 Z M85.9032675,5.48 C90.1252675,5.48 92.1992675,8.288 92.1992675,11.877 C92.1992675,16.601 89.0632675,18.004 86.2572675,18.004 C84.2352675,18.004 83.3242675,17.95 82.5662675,17.95 C81.4542675,17.95 80.7962675,17.977 79.7352675,18.004 C79.5832675,17.842 79.5832675,17.275 79.7352675,17.113 C81.2772675,16.978 81.5552675,16.897 81.5552675,14.657 L81.5552675,8.826 C81.5552675,6.586 81.2772675,6.478 79.7352675,6.37 C79.5832675,6.208 79.5832675,5.641 79.7352675,5.479 C80.8222675,5.506 81.4542675,5.533 82.5422675,5.533 C83.0202675,5.534 85.2452675,5.48 85.9032675,5.48 L85.9032675,5.48 Z M85.6502675,17.114 C88.4312675,17.114 89.9992675,16.115 89.9992675,12.337 C89.9992675,9.529 89.4182675,6.371 85.1702675,6.371 C84.1842675,6.371 83.5522633,6.533 83.5522633,7.208 L83.5522633,15.899 C83.5512675,16.655 83.7282675,17.114 85.6502675,17.114 L85.6502675,17.114 Z M98.0532675,14.658 C98.0532675,16.898 98.3312675,17.007 99.8732675,17.114 C100.024268,17.276 100.024268,17.843 99.8732675,18.005 C98.7862675,17.979 98.1532675,17.951 97.0672675,17.951 C95.9542675,17.951 95.2962675,17.978 94.2352675,18.005 C94.0832675,17.843 94.0832675,17.276 94.2352675,17.114 C95.7772675,16.979 96.0552675,16.898 96.0552675,14.658 L96.0552675,8.827 C96.0552675,6.587 95.7772675,6.479 94.2352675,6.371 C94.0832675,6.209 94.0832675,5.642 94.2352675,5.48 C95.3222675,5.507 95.9542675,5.534 97.0422675,5.534 C98.1532675,5.534 98.8122675,5.508 99.8732675,5.48 C100.024268,5.642 100.024268,6.209 99.8732675,6.371 C98.3312675,6.506 98.0532675,6.587 98.0532675,8.827 L98.0532675,14.658 L98.0532675,14.658 Z M107.070268,17.114 C107.222268,17.276 107.222268,17.843 107.070268,18.005 C106.134268,17.979 104.871268,17.951 103.834268,17.951 C102.849268,17.951 102.520268,17.978 101.584268,18.005 C101.433268,17.843 101.433268,17.276 101.584268,17.114 C102.684268,17.033 103.445268,16.866 104.113268,15.198 L109.733268,1.153 C110.021268,0.429 110.212268,0.189 110.586268,0.189 C110.940268,0.189 111.084268,0.478 111.268268,1 L116.452268,15.63 C116.920268,17.02 117.747268,17.02 118.727268,17.114 C118.879268,17.276 118.879268,17.843 118.727268,18.005 C117.791268,17.979 116.881268,17.951 115.844268,17.951 C114.859268,17.951 113.468268,17.978 112.532268,18.005 C112.381268,17.843 112.381268,17.276 112.532268,17.114 C113.736268,17.022 114.779268,17.12 114.403268,16.008 L112.861268,11.446 L107.601268,11.446 C106.995268,11.446 106.843268,11.553 106.716268,11.905 L105.325268,15.818 C104.931268,16.927 106.120268,17.043 107.070268,17.114 L107.070268,17.114 Z M112.455268,10.312 L110.003268,3.105 L109.952268,3.105 L107.419268,9.953 C107.313268,10.245 107.495268,10.312 108.056268,10.312 L112.455268,10.312 L112.455268,10.312 Z" id="Combined-Shape" fill="#000000" fill-rule="nonzero"></path>
    </g>
</svg>

<svg xmlns="http://www.w3.org/2000/svg" width="119" height="19"><path fill="#000" fill-rule="nonzero" d="M25.866.487c.152.161.152.729 0 .891-1.669.216-1.959 1.247-2.485 2.51l-5.985 13.767c-.177.405-.329.621-.606.621-.253 0-.448-.219-.582-.621l-3.4-7.836-3.73 7.836c-.15.405-.329.621-.607.621-.252 0-.43-.216-.58-.621l-5.5-13.82C1.618 1.918 1.567 1.514.126 1.379-.025 1.217-.05.65.102.488 1.29.514 1.72.542 2.732.542c.985 0 1.617-.027 2.806-.054.152.161.152.729 0 .891-1.593.188-1.66.615-1.026 2.159l4.63 11.256h.115l2.824-6.133-2.13-4.826C9.102 1.918 8.9 1.541 7.812 1.379c-.15-.162-.177-.729-.025-.891.81.026 1.24.054 2.25.054.986 0 1.391-.027 2.301-.054.152.161.152.729 0 .891-1.062.162-.96.62-.268 2.159l1.244 2.727.111.121 1.34-2.686c.781-1.565.885-2.159-.202-2.321-.152-.164-.152-.731 0-.892.936.026 1.416.054 1.997.054.582 0 1.214-.027 1.846-.054.151.161.151.729 0 .891-1.315.216-1.864 1.244-2.486 2.51l-1.848 3.755 3.234 7.15h.116l4.802-11.094c.6-1.461.556-2.187-1.087-2.321-.152-.162-.152-.729 0-.891 1.188.026 1.921.054 2.503.054.582 0 1.214-.027 2.225-.054Zm5.145 4.993c.152.162.152.729 0 .891-1.542.135-1.82.216-1.82 2.456v5.831c0 2.24.277 2.349 1.82 2.456.151.162.151.729 0 .891-1.088-.026-1.72-.054-2.807-.054-1.113 0-1.77.027-2.832.054-.15-.162-.15-.729 0-.891 1.542-.135 1.82-.216 1.82-2.456V8.827c0-2.24-.278-2.348-1.82-2.456-.15-.162-.15-.729 0-.891 1.087.027 1.72.054 2.807.054 1.112 0 1.77-.026 2.832-.054Zm2.418.891c-.15-.162-.15-.729 0-.891 1.062.027 1.72.054 2.832.054.936 0 1.34-.026 2.427-.054.151.162.151.729 0 .891-1.214.135-1.44.216-1.44 2.456v2.402c.833 0 1.574-.426 2.654-1.728 1.947-2.348 2.2-3.05.936-3.131-.152-.162-.152-.729 0-.891 1.087.027 2.048.054 2.781.054.657 0 1.087-.026 1.77-.054.151.162.151.729 0 .891-1.01.054-1.939.191-2.706 1.134l-2.174 2.672c-.43.486-.582.783-.582.999 0 .162.101.297.228.459l3.742 4.697c.331.41.936.701 1.618.782.151.162.151.702 0 .864 0 0-1.239-.027-1.947-.027-.658 0-1.29.027-1.568.054v-.378c0-.351-.025-.647-.379-1.079l-2.806-3.726c-.379-.54-1.012-.675-1.568-.675v2.511c0 2.24.228 2.321 1.441 2.456.151.162.151.729 0 .891-1.087-.026-1.492-.054-2.427-.054-1.113 0-1.77.027-2.832.054-.15-.162-.15-.729 0-.891 1.542-.135 1.821-.216 1.821-2.456V8.826c0-2.24-.279-2.321-1.82-2.455Zm17.84 8.287c0 2.24.277 2.349 1.82 2.456.151.162.151.729 0 .891-1.088-.026-1.72-.054-2.807-.054-1.113 0-1.77.027-2.832.054-.15-.162-.15-.729 0-.891 1.542-.135 1.821-.216 1.821-2.456V8.827c0-2.24-.278-2.348-1.82-2.456-.152-.162-.152-.729 0-.891 1.086.027 1.718.054 2.806.054 1.112 0 1.77-.026 2.832-.054.152.162.152.729 0 .891-1.542.135-1.82.216-1.82 2.456v5.831Zm9.951 2.456c.152.162.152.729 0 .891-1.087-.026-1.719-.054-2.806-.054-1.112 0-1.77.027-2.832.054-.152-.162-.152-.729 0-.891 1.542-.135 1.82-.216 1.82-2.456V8.827c0-2.24-.278-2.348-1.82-2.456-.152-.162-.152-.729 0-.891 1.087.027 1.72.054 2.806.054.683 0 1.745-.054 2.68-.054 3.591 0 4.35 1.89 4.35 3.293 0 1.62-1.037 4.211-4.425 4.211-.633 0-1.138-.107-1.593-.324v1.998c0 2.24.278 2.348 1.82 2.456Zm-1.82-5.318c.505.216 1.138.297 1.643.297 1.517 0 2.175-1.05 2.175-2.996 0-1.893-.809-2.727-2.3-2.727-1.215 0-1.518.351-1.518 1.215v4.211Zm11.772.081v4.049c0 .513.354 1.188.81 1.188h2.098c1.594 0 2.326-1.35 2.73-2.942.28-.081.48-.026.71.108-.179 1.134-.456 2.618-.76 3.725 0 0-1.669-.054-2.68-.054h-3.895s-1.77.027-2.83.054c-.153-.162-.153-.729 0-.891 1.541-.135 1.82-.216 1.82-2.456V8.827c0-2.24-.279-2.348-1.82-2.456-.153-.162-.153-.729 0-.891 1.086.027 2.806.054 2.806.054h5.232c.506 0 .684-.054 1.037-.107.051 0 .076.026.076.081.051.188.354 2.294.455 3.212-.202.107-.43.162-.683.135-.455-1.538-.784-2.43-2.352-2.43H71.98c-.48 0-.81.297-.81.756v3.833h1.44c1.771-.026 1.695-.297 1.745-1.512.126-.135.581-.135.708 0-.025.675-.05 1.161-.05 1.917s.024 1.188.05 1.971c-.127.135-.582.135-.708 0-.05-.999.051-1.512-1.745-1.512h-1.438v-.001ZM73.322 0c.162 0 .81.027 1.391.621l.076.297-2.908 2.942c-.379.404-.582.513-.759.513a.369.369 0 0 1-.354-.352c0-.302.084-.41.29-.756l1.91-3.212A1.31 1.31 0 0 1 73.322 0Zm12.581 5.48c4.222 0 6.296 2.808 6.296 6.397 0 4.724-3.136 6.127-5.942 6.127-2.022 0-2.933-.054-3.69-.054-1.113 0-1.77.027-2.832.054-.152-.162-.152-.729 0-.891 1.542-.135 1.82-.216 1.82-2.456V8.826c0-2.24-.278-2.348-1.82-2.456-.152-.162-.152-.729 0-.891 1.087.027 1.72.054 2.807.054.478.001 2.703-.053 3.361-.053Zm-.253 11.634c2.781 0 4.35-.999 4.35-4.777 0-2.808-.582-5.966-4.83-5.966-.986 0-1.618.162-1.618.837v8.691c0 .756.176 1.215 2.098 1.215Zm12.403-2.456c0 2.24.278 2.349 1.82 2.456.151.162.151.729 0 .891-1.087-.026-1.72-.054-2.806-.054-1.113 0-1.77.027-2.832.054-.152-.162-.152-.729 0-.891 1.542-.135 1.82-.216 1.82-2.456V8.827c0-2.24-.278-2.348-1.82-2.456-.152-.162-.152-.729 0-.891 1.087.027 1.72.054 2.807.054 1.111 0 1.77-.026 2.831-.054.151.162.151.729 0 .891-1.542.135-1.82.216-1.82 2.456v5.831Zm9.017 2.456c.152.162.152.729 0 .891-.936-.026-2.199-.054-3.236-.054-.985 0-1.314.027-2.25.054-.15-.162-.15-.729 0-.891 1.1-.081 1.861-.248 2.53-1.916l5.62-14.045c.287-.724.478-.964.852-.964.354 0 .498.289.682.811l5.184 14.63c.468 1.39 1.295 1.39 2.275 1.484.152.162.152.729 0 .891-.936-.026-1.846-.054-2.883-.054-.985 0-2.376.027-3.312.054-.15-.162-.15-.729 0-.891 1.204-.092 2.247.006 1.871-1.106l-1.542-4.562h-5.26c-.606 0-.758.107-.885.459l-1.39 3.913c-.395 1.109.794 1.225 1.744 1.296Zm5.385-6.802-2.452-7.207h-.05l-2.534 6.848c-.106.292.076.359.637.359h4.4Z"/></svg>
